Origami/48x48/apps/mat.svg

<svg width="48" height="48" version="1" xmlns="http://www.w3.org/2000/svg">
 <rect x="20" y="15" width="8" height="30" rx="3" ry="3" style="opacity:.2"/>
 <rect x="20" y="14" width="8" height="30" rx="3" ry="3" style="fill:#b83229"/>
 <path d="m21.533219 24.982025c-4.958527-0.08976-6.971122-0.169008-8.201813-0.322972-0.902511-0.112911-1.345731-0.222988-1.845613-0.45837-0.825616-0.388758-1.339081-0.930859-1.7096324-1.804979-0.338791-0.799168-0.476739-1.433911-0.603337-2.776204-0.142869-1.514784-0.154035-1.789014-0.168872-4.149164-0.017475-2.775542 0.0177-3.685064 0.213413-5.5273205 0.102621-0.965803 0.25221-1.6076612 0.533272-2.28831 0.2559684-0.6198537 0.4896604-0.9619431 0.9146634-1.3389232 0.53415-0.4737939 1.120777-0.7618126 1.861342-0.9138572 1.10538-0.2269467 6.101527-0.4019255 11.475937-0.4019255 5.374409 0 10.370557 0.1749788 11.475936 0.4019255 0.799403 0.1641267 1.386112 0.467284 1.958557 1.0120005 0.448035 0.4263318 0.678796 0.8137236 0.953408 1.6005962 0.282961 0.8107806 0.391478 1.5283163 0.552262 3.6516622 0.07635 1.008346 0.07634 5.650096 0 6.657945-0.08934 1.179026-0.19896 2.228979-0.271957 2.604672-0.187664 0.96589-0.556245 1.870229-0.971797 2.384406-0.285106 0.352765-0.847921 0.773091-1.318553 0.98473-0.476558 0.214303-0.930599 0.320548-1.662561 0.389055-2.268159 0.212277-9.194378 0.367271-13.184626 0.295033z" style="opacity:.2"/>
 <path d="m21.533219 23.982025c-4.958527-0.08976-6.971122-0.169008-8.201813-0.322972-0.902511-0.112911-1.345731-0.222988-1.845613-0.45837-0.825616-0.388758-1.339081-0.930859-1.7096324-1.804979-0.338791-0.799168-0.476739-1.433911-0.603337-2.776204-0.142869-1.514784-0.154035-1.789014-0.168872-4.149164-0.017475-2.775542 0.0177-3.685064 0.213413-5.5273201 0.102621-0.965803 0.25221-1.6076612 0.533272-2.28831 0.2559684-0.6198537 0.4896604-0.9619431 0.9146634-1.3389232 0.53415-0.4737939 1.120777-0.7618126 1.861342-0.9138572 1.10538-0.2269467 6.101527-0.4019255 11.475937-0.4019255 5.374409 0 10.370557 0.1749788 11.475936 0.4019255 0.799403 0.1641267 1.386112 0.467284 1.958557 1.0120005 0.448035 0.4263318 0.678796 0.8137236 0.953408 1.6005962 0.282961 0.8107806 0.391478 1.5283163 0.552262 3.6516618 0.07635 1.008346 0.07634 5.650096 0 6.657945-0.08934 1.179026-0.19896 2.228979-0.271957 2.604672-0.187664 0.96589-0.556245 1.870229-0.971797 2.384406-0.285106 0.352765-0.847921 0.773091-1.318553 0.98473-0.476558 0.214303-0.930599 0.320548-1.662561 0.389055-2.268159 0.212277-9.194378 0.367271-13.184626 0.295033z" style="fill:#d54c41"/>
 <path d="m32.984375 9.9867579a1.0001 1.0001 0 0 0 -0.144531 0.0136721h-2.839844a1.0001 1.0001 0 1 0 0 2h2v7a1.0001 1.0001 0 1 0 2 0v-7h2a1.0001 1.0001 0 1 0 0 -2h-2.845703a1.0001 1.0001 0 0 0 -0.169922 -0.013672zm-20 0.013672a1.0001 1.0001 0 0 0 -0.984375 1v8a1.0001 1.0001 0 1 0 2 0v-5.585938l1.292969 1.292969a1.0001 1.0001 0 0 0 1.414062 0l1.292969-1.2929689v5.585938a1.0001 1.0001 0 1 0 2 0v-8a1.0001 1.0001 0 0 0 -1.707031 -0.707031l-2.292969 2.292969-2.292969-2.292969a1.0001 1.0001 0 0 0 -0.722656 -0.292969zm12.027344 0a1.0001 1.0001 0 0 0 -0.947266 0.648437l-3 8.000001a1.0001 1.0001 0 1 0 1.871094 0.703124l0.505859-1.351562h3.117188l0.505859 1.351562a1.0001 1.0001 0 1 0 1.871094 -0.703124l-3-8.000001a1.0001 1.0001 0 0 0 -0.923828 -0.6484369zm-0.011719 3.8457031 0.808594 2.154297h-1.617188z" style="opacity:.2"/>
 <path d="m13 17.999757v-7.9999995l3 2.9999995 3-2.9999995v7.9999995" style="fill:none;stroke-linecap:round;stroke-linejoin:round;stroke-width:2;stroke:#fefefe"/>
 <path d="m22 17.999757 3-7.9999995 3 7.9999995" style="fill:none;stroke-linecap:round;stroke-linejoin:round;stroke-width:2;stroke:#fefefe"/>
 <path d="m33.0001 17.999757v-7.9999995" style="fill:none;stroke-linecap:round;stroke-linejoin:round;stroke-width:2;stroke:#fefefe"/>
 <path d="m30 9.9997575h6" style="fill:none;stroke-linecap:round;stroke-linejoin:round;stroke-width:2;stroke:#fefefe"/>
 <path d="m23 15.999757h4" style="fill:none;stroke-width:2;stroke:#fefefe"/>
 <path d="m24.001953 4c-5.37441 0-10.369229 0.175397-11.474609 0.4023438-0.740565 0.1520445-1.327178 0.4402686-1.861328 0.9140624-0.425003 0.3769801-0.660048 0.718037-0.916016 1.3378907-0.281062 0.6806488-0.4305821 1.3232595-0.5332031 2.2890625-0.195713 1.8422556-0.2303656 2.7518016-0.2128907 5.5273436 0.0011213 0.178363 0.0047217 0.205356 0.0058594 0.361328-0.0049708-2.173734 0.031393-3.23538 0.2070313-4.8886716 0.102621-0.965803 0.2521411-1.6084137 0.5332031-2.2890625 0.255968-0.6198537 0.491013-0.9609105 0.916016-1.3378907 0.53415-0.4737939 1.120763-0.7620179 1.861328-0.9140624 1.10538-0.2269468 6.100199-0.4023438 11.474609-0.4023438 5.374409 0 10.371184 0.1753971 11.476563 0.4023438 0.799403 0.1641266 1.386539 0.4670022 1.958984 1.0117187 0.448035 0.4263318 0.678513 0.8127368 0.953125 1.5996094 0.282961 0.8107806 0.39195 1.5289978 0.552734 3.6523441 0.032444 0.428475 0.043959 1.647075 0.048829 2.830078 0.006597-1.601054-0.004919-3.250163-0.048829-3.830078-0.160784-2.1233459-0.269773-2.8415635-0.552734-3.6523441-0.274612-0.7868726-0.50509-1.1732776-0.953125-1.5996094-0.572445-0.5447165-1.159581-0.8475921-1.958984-1.0117187-1.105379-0.2269467-6.102154-0.4023438-11.476563-0.4023438z" style="fill:#ffffff;opacity:.2"/>
</svg>

<svg xmlns="http://www.w3.org/2000/svg" width="48" height="48" version="1">
 <rect style="opacity:0.2" width="8" height="30" x="20" y="15" rx="3" ry="3"/>
 <rect style="fill:#b83229" width="8" height="30" x="20" y="14" rx="3" ry="3"/>
 <path style="opacity:0.2" d="m 21.533219,24.982025 c -4.958527,-0.08976 -6.971122,-0.169008 -8.201813,-0.322972 -0.902511,-0.112911 -1.345731,-0.222988 -1.845613,-0.45837 -0.825616,-0.388758 -1.339081,-0.930859 -1.7096324,-1.804979 -0.338791,-0.799168 -0.476739,-1.433911 -0.603337,-2.776204 -0.142869,-1.514784 -0.154035,-1.789014 -0.168872,-4.149164 -0.017475,-2.775542 0.0177,-3.685064 0.213413,-5.5273205 0.102621,-0.965803 0.25221,-1.6076612 0.533272,-2.28831 C 10.006605,7.0348518 10.240297,6.6927624 10.6653,6.3157823 c 0.53415,-0.4737939 1.120777,-0.7618126 1.861342,-0.9138572 1.10538,-0.2269467 6.101527,-0.4019255 11.475937,-0.4019255 5.374409,0 10.370557,0.1749788 11.475936,0.4019255 0.799403,0.1641267 1.386112,0.467284 1.958557,1.0120005 0.448035,0.4263318 0.678796,0.8137236 0.953408,1.6005962 0.282961,0.8107806 0.391478,1.5283163 0.552262,3.6516622 0.07635,1.008346 0.07634,5.650096 0,6.657945 -0.08934,1.179026 -0.19896,2.228979 -0.271957,2.604672 -0.187664,0.96589 -0.556245,1.870229 -0.971797,2.384406 -0.285106,0.352765 -0.847921,0.773091 -1.318553,0.98473 -0.476558,0.214303 -0.930599,0.320548 -1.662561,0.389055 -2.268159,0.212277 -9.194378,0.367271 -13.184626,0.295033 z"/>
 <path style="fill:#d54c41" d="m 21.533219,23.982025 c -4.958527,-0.08976 -6.971122,-0.169008 -8.201813,-0.322972 -0.902511,-0.112911 -1.345731,-0.222988 -1.845613,-0.45837 -0.825616,-0.388758 -1.339081,-0.930859 -1.7096324,-1.804979 -0.338791,-0.799168 -0.476739,-1.433911 -0.603337,-2.776204 -0.142869,-1.514784 -0.154035,-1.789014 -0.168872,-4.149164 -0.017475,-2.775542 0.0177,-3.685064 0.213413,-5.5273201 0.102621,-0.965803 0.25221,-1.6076612 0.533272,-2.28831 C 10.006605,6.0348522 10.240297,5.6927628 10.6653,5.3157827 11.19945,4.8419888 11.786077,4.5539701 12.526642,4.4019255 13.632022,4.1749788 18.628169,4 24.002579,4 c 5.374409,0 10.370557,0.1749788 11.475936,0.4019255 0.799403,0.1641267 1.386112,0.467284 1.958557,1.0120005 0.448035,0.4263318 0.678796,0.8137236 0.953408,1.6005962 0.282961,0.8107806 0.391478,1.5283163 0.552262,3.6516618 0.07635,1.008346 0.07634,5.650096 0,6.657945 -0.08934,1.179026 -0.19896,2.228979 -0.271957,2.604672 -0.187664,0.96589 -0.556245,1.870229 -0.971797,2.384406 -0.285106,0.352765 -0.847921,0.773091 -1.318553,0.98473 -0.476558,0.214303 -0.930599,0.320548 -1.662561,0.389055 -2.268159,0.212277 -9.194378,0.367271 -13.184626,0.295033 z"/>
 <path style="opacity:0.2" d="M 32.984375,9.9867579 A 1.0001,1.0001 0 0 0 32.839844,10.00043 H 30 a 1.0001,1.0001 0 1 0 0,2 h 2 v 7 a 1.0001,1.0001 0 1 0 2,0 v -7 h 2 a 1.0001,1.0001 0 1 0 0,-2 h -2.845703 a 1.0001,1.0001 0 0 0 -0.169922,-0.013672 z m -20,0.013672 a 1.0001,1.0001 0 0 0 -0.984375,1 v 8 a 1.0001,1.0001 0 1 0 2,0 v -5.585938 l 1.292969,1.292969 a 1.0001,1.0001 0 0 0 1.414062,0 L 18,13.414492 v 5.585938 a 1.0001,1.0001 0 1 0 2,0 v -8 A 1.0001,1.0001 0 0 0 18.292969,10.293399 L 16,12.586368 13.707031,10.293399 A 1.0001,1.0001 0 0 0 12.984375,10.00043 Z m 12.027344,0 a 1.0001,1.0001 0 0 0 -0.947266,0.648437 l -3,8.000001 a 1.0001,1.0001 0 1 0 1.871094,0.703124 l 0.505859,-1.351562 h 3.117188 l 0.505859,1.351562 a 1.0001,1.0001 0 1 0 1.871094,-0.703124 l -3,-8.000001 A 1.0001,1.0001 0 0 0 25.011719,10.00043 Z M 25,13.846133 25.808594,16.00043 h -1.617188 z"/>
 <path style="fill:none;stroke:#fefefe;stroke-width:2;stroke-linecap:round;stroke-linejoin:round" d="M 13,17.999757 V 9.9997575 l 3,2.9999995 3,-2.9999995 v 7.9999995"/>
 <path style="fill:none;stroke:#fefefe;stroke-width:2;stroke-linecap:round;stroke-linejoin:round" d="m 22,17.999757 3,-7.9999995 3,7.9999995"/>
 <path style="fill:none;stroke:#fefefe;stroke-width:2;stroke-linecap:round;stroke-linejoin:round" d="m 33.0001,17.999757 v -7.9999995 0"/>
 <path style="fill:none;stroke:#fefefe;stroke-width:2;stroke-linecap:round;stroke-linejoin:round" d="m 30,9.9997575 h 6"/>
 <path style="fill:none;stroke:#fefefe;stroke-width:2" d="m 23,15.999757 h 4"/>
 <path style="fill:#ffffff;opacity:0.2" d="M 24.001953 4 C 18.627543 4 13.632724 4.175397 12.527344 4.4023438 C 11.786779 4.5543883 11.200166 4.8426124 10.666016 5.3164062 C 10.241013 5.6933863 10.005968 6.0344432 9.75 6.6542969 C 9.468938 7.3349457 9.3194179 7.9775564 9.2167969 8.9433594 C 9.0210839 10.785615 8.9864313 11.695161 9.0039062 14.470703 C 9.0050275 14.649066 9.0086279 14.676059 9.0097656 14.832031 C 9.0047948 12.658297 9.0411586 11.596651 9.2167969 9.9433594 C 9.3194179 8.9775564 9.468938 8.3349457 9.75 7.6542969 C 10.005968 7.0344432 10.241013 6.6933864 10.666016 6.3164062 C 11.200166 5.8426123 11.786779 5.5543883 12.527344 5.4023438 C 13.632724 5.175397 18.627543 5 24.001953 5 C 29.376362 5 34.373137 5.1753971 35.478516 5.4023438 C 36.277919 5.5664704 36.865055 5.869346 37.4375 6.4140625 C 37.885535 6.8403943 38.116013 7.2267993 38.390625 8.0136719 C 38.673586 8.8244525 38.782575 9.5426697 38.943359 11.666016 C 38.975803 12.094491 38.987318 13.313091 38.992188 14.496094 C 38.998785 12.89504 38.987269 11.245931 38.943359 10.666016 C 38.782575 8.5426701 38.673586 7.8244525 38.390625 7.0136719 C 38.116013 6.2267993 37.885535 5.8403943 37.4375 5.4140625 C 36.865055 4.869346 36.277919 4.5664704 35.478516 4.4023438 C 34.373137 4.1753971 29.376362 4 24.001953 4 z"/>
</svg>
